assets/images/design-right.svg

<svg width="153" height="178" viewBox="0 0 153 178" fill="none" xmlns="http://www.w3.org/2000/svg">
<g clip-path="url(#clip0_28589_3569)">
<path d="M106.511 32.0308C106.42 31.4784 106.348 31.0265 106.231 30.5634C105.575 28.1771 104.28 26.1966 102.611 24.3558C100.268 21.8065 97.463 19.9017 94.4279 18.3203C89.4055 15.725 84.0059 14.1819 78.4472 13.414C70.2046 12.2614 62.0579 12.7216 53.9994 14.6454C49.4779 15.7405 45.1744 17.278 41.2167 19.6765C39.7841 20.5411 38.4624 21.5328 37.1725 22.5797C36.4301 23.1986 35.864 24.0553 35.2655 24.8556C35.0461 25.1333 34.8287 25.4115 34.4694 25.3153C34.213 25.1979 33.8897 24.9674 33.7591 24.7398C33.4755 24.1834 33.6315 23.601 33.9876 23.1684C34.6678 22.245 35.2698 21.254 36.1371 20.5247C37.5287 19.3032 39.0275 18.2097 40.6154 17.2574C43.5872 15.3154 46.9307 13.9533 50.369 12.9521C62.3931 9.49643 74.4776 9.22695 86.601 12.5717C92.0096 14.0696 97.0589 16.3833 101.435 19.9576C105.255 23.0953 108.164 26.757 108.945 31.9148C109.373 31.9332 109.767 31.895 110.15 31.9011C115.037 31.7697 119.951 32.0769 124.774 33.0815C129.464 34.0492 133.951 35.5881 137.936 38.2895C139.186 39.1527 140.356 40.1256 141.433 41.1965C146.556 46.4609 147.253 53.1814 143.456 59.4658C142.078 61.7395 140.312 63.6683 138.346 65.447C134.494 68.8832 130.094 71.4995 125.464 73.7178C124.194 74.338 122.901 74.8572 121.585 75.4653C121.313 75.5839 121.086 75.7157 120.7 75.9011C121.043 76.2331 121.342 76.5535 121.608 76.8172C124.211 79.2913 126.381 82.1307 127.743 85.4752C129.463 89.6351 129.763 93.8948 128.317 98.2159C127.441 100.767 126.087 102.95 124.297 104.97C121.474 108.152 118.013 110.491 114.233 112.409C113.733 112.66 113.234 112.911 112.632 113.181C112.862 113.579 113.104 113.933 113.3 114.273C115.416 117.675 116.548 121.342 116.085 125.397C115.777 128.341 114.64 130.967 112.979 133.404C110.844 136.532 108.123 138.973 105.015 141.071C100.722 144.005 96.0261 146.109 91.0597 147.613C90.6857 147.753 90.2673 147.881 89.7916 148.041C90.0658 148.451 90.2753 148.748 90.517 149.101C93.0799 152.623 95.4736 156.243 97.298 160.19C98.1575 162.006 98.8574 163.875 99.5002 165.777C100.007 167.181 100.212 168.677 100.102 170.166C100.037 171.302 99.7231 171.938 99.0262 172.568C98.9947 172.522 98.9573 172.479 98.9151 172.442C99.3773 171.076 99.1636 169.722 98.8035 168.377C98.2535 166.307 97.3736 164.39 96.3809 162.539C93.8608 157.779 90.8286 153.317 87.5569 149.029C87.4802 148.96 87.4023 148.891 87.2596 148.709C86.9531 148.771 86.6042 148.821 86.2421 148.917C77.3058 150.894 68.2955 151.169 59.2931 149.623C54.5115 148.822 49.8859 147.439 45.7069 144.925C44.2351 144.063 42.8861 143.007 41.6963 141.784C40.8004 140.824 40.0757 139.765 39.5778 138.575C38.5198 135.889 38.8989 133.396 40.7374 131.198C42.0124 129.666 43.6607 128.715 45.4973 127.958C49.2711 126.423 53.1727 126.027 57.1753 126.331C66.1003 127.089 73.7962 130.641 80.1291 136.95C82.6305 139.445 84.9023 142.264 87.2666 144.915L88.0273 145.84C88.1747 145.831 88.2636 145.854 88.3653 145.834C94.3373 144.167 99.9836 141.741 104.978 137.986C107.805 135.862 110.232 133.437 111.939 130.292C114.729 125.081 114.14 119.207 110.285 114.235C109.967 114.341 109.549 114.469 109.175 114.61C101.768 117.333 94.1791 118.758 86.2701 118.513C82.9849 118.402 79.772 118.021 76.6364 116.989C74.8233 116.406 73.0461 115.69 71.5919 114.484C70.758 113.828 69.9604 113.038 69.3794 112.162C67.9941 110.157 68.09 107.828 69.497 105.804C70.3261 104.68 71.3773 103.809 72.5704 103.12C74.6157 101.939 76.868 101.245 79.1817 100.856C84.6243 99.9121 89.9864 100.34 95.2517 101.847C101.144 103.522 106.343 106.356 110.612 110.862L110.922 111.138C111.194 111.018 111.511 110.912 111.784 110.792C114.915 109.326 117.894 107.53 120.488 105.198C122.511 103.386 124.167 101.331 125.312 98.8518C126.888 95.4787 127.104 91.9815 126.084 88.4408C125.331 85.6922 123.976 83.2163 122.11 81.035C121.05 79.7903 119.853 78.7014 118.725 77.5336C118.239 77.0191 117.721 76.9758 117.031 77.2234C112.368 78.9315 107.576 80.2661 102.702 81.2148C95.2805 82.7338 87.7463 83.5972 80.154 83.2442C76.4528 83.0703 72.8364 82.5806 69.3109 81.3958C67.5541 80.7812 65.8899 79.9988 64.5051 78.7146C62.277 76.6289 62.0977 73.8901 64.0295 71.5256C64.554 70.8447 65.1831 70.2511 65.8932 69.767C66.9858 69.0156 68.1416 68.3606 69.3476 67.8093C72.0254 66.6054 74.9071 65.8888 77.8078 65.4641C87.9758 63.9129 97.923 64.8007 107.622 68.4088C111.202 69.7522 114.615 71.5324 117.72 73.7566C118.164 74.0682 118.544 74.2663 119.145 73.9945C124.052 71.9946 128.784 69.755 133.114 66.688C135.597 64.9515 137.892 63.0197 139.811 60.6993C140.936 59.3671 141.906 57.8982 142.575 56.2997C144.344 52.2092 143.935 48.353 141.464 44.6639C139.674 42.0225 137.195 40.1574 134.429 38.6479C130.737 36.6494 126.772 35.4906 122.629 34.8133C118.352 34.099 114.078 33.9146 109.753 34.1014C109.517 34.0857 109.313 34.1274 109.053 34.2017C108.981 34.4702 108.876 34.6824 108.861 34.9184C108.466 37.6472 107.39 40.0495 105.587 42.1132C104.406 43.4779 103.133 44.8183 101.73 45.9312C95.7075 50.6594 88.8084 53.2791 81.175 53.972C79.4058 54.1222 77.594 54.0685 75.891 53.6122C75.353 53.468 74.815 53.3238 74.2899 53.1355C71.0798 51.8437 70.1153 48.9908 71.6968 45.9557C72.371 44.6953 73.3231 43.6532 74.3857 42.736C76.031 41.2553 77.9311 40.0832 79.9405 39.0366C84.9721 36.3969 90.3689 34.7206 95.9366 33.6657C99.0305 33.0536 102.188 32.7462 105.292 32.2808C105.678 32.0964 106.071 32.0579 106.511 32.0308ZM85.6777 146.364C84.8059 145.313 84.0442 144.388 83.2381 143.452C80.633 140.447 77.9575 137.52 74.7441 135.17C68.5503 130.676 61.6567 128.252 54.0016 128.315C51.1639 128.323 48.3874 128.829 45.7994 130.057C44.5405 130.632 43.392 131.333 42.4721 132.432C41.1852 134.009 40.8187 135.736 41.7105 137.609C42.146 138.495 42.6707 139.403 43.4025 140.08C44.4327 141.076 45.5756 142.008 46.8122 142.771C50.3225 144.913 54.2192 146.149 58.2353 146.936C66.9978 148.66 75.7805 148.515 84.5235 146.726C84.8399 146.619 85.1704 146.468 85.6777 146.364ZM115.682 75.0846C115.405 74.8652 115.293 74.7401 115.127 74.6478C112.728 73.0969 110.183 71.7871 107.527 70.7376C100.783 68.1128 93.7569 66.9031 86.5405 66.9396C81.6768 66.9822 76.9173 67.5321 72.3085 69.1307C70.8262 69.6477 69.3841 70.3659 68.0198 71.1536C67.1673 71.6458 66.4467 72.3648 65.8025 73.1539C64.8719 74.297 65.0189 75.5373 66.0379 76.5796C66.5243 77.094 67.0921 77.4863 67.7163 77.8461C69.4991 78.9005 71.4597 79.4734 73.4681 79.8677C76.5183 80.4928 79.626 80.7938 82.7395 80.7659C93.7822 80.795 104.498 78.8139 114.979 75.3764C115.218 75.2915 115.453 75.1941 115.682 75.0846ZM108.577 111.999C108.357 111.748 108.225 111.521 108.025 111.371C107.126 110.602 106.296 109.755 105.328 109.063C99.6354 104.847 93.1754 102.78 86.1571 102.437C82.7379 102.289 79.4346 102.605 76.1966 103.755C74.7126 104.27 73.3279 104.956 72.1276 106.028C70.2066 107.819 70.1382 109.867 71.9866 111.755C73.0046 112.797 74.3095 113.483 75.6516 114.034C78.579 115.299 81.7234 115.757 84.8947 115.934C92.801 116.371 100.422 115.003 107.817 112.324C108.021 112.282 108.248 112.152 108.577 111.999ZM106.598 34.2169C106.26 34.2216 106.024 34.207 105.834 34.2035C98.6853 34.8826 91.6708 36.318 84.9958 38.9977C82.1965 40.1215 79.4956 41.4155 77.0783 43.2659C75.9946 44.0802 74.9655 45.054 74.1476 46.1321C72.3761 48.4433 73.0762 50.3122 75.8756 51.1585C77.6562 51.6843 79.4682 51.7371 81.2947 51.5546C88.0608 50.8684 94.2001 48.5732 99.6928 44.5683C101.721 43.0951 103.484 41.3572 104.826 39.2187C105.751 37.7376 106.375 36.1263 106.598 34.2169Z" fill="#26292F" fill-opacity="0.25"/>
</g>
<defs>
<clipPath id="clip0_28589_3569">
<rect width="117" height="152" fill="white" transform="translate(39.6636) rotate(15)"/>
</clipPath>
</defs>
</svg>

<svg xmlns="http://www.w3.org/2000/svg" width="153" height="178" fill="none"><g clip-path="url(#a)"><path fill="#26292F" fill-opacity=".25" d="M106.511 32.03c-.091-.552-.163-1.004-.28-1.467-.656-2.386-1.951-4.366-3.62-6.207-2.343-2.55-5.148-4.454-8.183-6.036-5.022-2.595-10.422-4.138-15.98-4.906-8.243-1.153-16.39-.692-24.449 1.231-4.521 1.096-8.825 2.633-12.782 5.032-1.433.864-2.755 1.856-4.044 2.903-.743.619-1.309 1.475-1.907 2.276-.22.277-.437.555-.797.46-.256-.118-.58-.349-.71-.576-.284-.557-.127-1.139.229-1.572.68-.923 1.282-1.914 2.15-2.643a31 31 0 0 1 4.477-3.268c2.972-1.942 6.316-3.304 9.754-4.305 12.024-3.456 24.109-3.725 36.232-.38 5.409 1.498 10.458 3.811 14.834 7.386 3.82 3.137 6.729 6.799 7.51 11.957.428.018.822-.02 1.205-.014 4.887-.131 9.801.176 14.624 1.18 4.69.968 9.177 2.507 13.162 5.208 1.25.864 2.42 1.837 3.497 2.907 5.123 5.265 5.82 11.985 2.023 18.27-1.378 2.273-3.144 4.202-5.11 5.981-3.852 3.436-8.252 6.052-12.882 8.27-1.27.621-2.563 1.14-3.879 1.748-.272.119-.499.25-.885.436.343.332.642.653.908.916 2.603 2.474 4.773 5.314 6.135 8.658 1.72 4.16 2.02 8.42.574 12.74-.876 2.552-2.23 4.735-4.02 6.755-2.823 3.182-6.284 5.521-10.064 7.439-.5.251-.999.502-1.601.772.23.398.472.752.668 1.092 2.116 3.402 3.248 7.069 2.785 11.124-.308 2.944-1.445 5.57-3.106 8.007-2.135 3.128-4.856 5.569-7.964 7.667-4.293 2.934-8.989 5.038-13.955 6.542-.374.14-.793.268-1.268.428.274.41.483.707.725 1.06 2.563 3.522 4.957 7.142 6.781 11.089.86 1.816 1.56 3.685 2.202 5.587.507 1.404.712 2.9.602 4.389-.065 1.136-.379 1.772-1.076 2.402a.7.7 0 0 0-.11-.126c.461-1.366.248-2.72-.112-4.065-.55-2.07-1.43-3.987-2.423-5.838-2.52-4.76-5.552-9.222-8.824-13.51-.077-.069-.155-.138-.297-.32-.307.062-.656.112-1.018.208-8.936 1.977-17.946 2.252-26.949.706-4.782-.801-9.407-2.184-13.586-4.698a19 19 0 0 1-4.01-3.141c-.897-.96-1.621-2.019-2.12-3.209-1.057-2.686-.678-5.179 1.16-7.377 1.275-1.532 2.924-2.483 4.76-3.24 3.774-1.535 7.676-1.931 11.678-1.627 8.925.758 16.621 4.31 22.954 10.619 2.501 2.495 4.773 5.314 7.138 7.965l.76.925c.148-.009.237.014.338-.006 5.972-1.667 11.619-4.093 16.613-7.848 2.827-2.124 5.254-4.549 6.961-7.694 2.79-5.211 2.201-11.085-1.654-16.057-.318.106-.736.234-1.11.375-7.407 2.723-14.996 4.148-22.905 3.903-3.285-.111-6.498-.492-9.634-1.524-1.813-.583-3.59-1.299-5.044-2.505-.834-.656-1.632-1.446-2.213-2.322-1.385-2.005-1.289-4.334.118-6.358.83-1.124 1.88-1.995 3.073-2.684 2.046-1.181 4.298-1.875 6.612-2.264 5.442-.944 10.804-.516 16.07.991 5.892 1.675 11.091 4.509 15.36 9.015l.31.276c.272-.12.589-.226.862-.346 3.131-1.466 6.11-3.262 8.704-5.594 2.023-1.812 3.679-3.867 4.824-6.346 1.576-3.373 1.792-6.87.772-10.411-.753-2.749-2.108-5.225-3.974-7.406-1.06-1.245-2.257-2.334-3.385-3.501-.486-.515-1.004-.558-1.694-.31a94 94 0 0 1-14.329 3.99c-7.421 1.52-14.956 2.383-22.548 2.03-3.701-.174-7.318-.663-10.843-1.848-1.757-.615-3.421-1.397-4.806-2.681-2.228-2.086-2.407-4.825-.475-7.19a8.1 8.1 0 0 1 1.863-1.758 23 23 0 0 1 3.455-1.958c2.677-1.204 5.56-1.92 8.46-2.345 10.168-1.551 20.115-.663 29.814 2.945 3.58 1.343 6.993 3.123 10.098 5.348.444.311.824.51 1.425.237 4.907-2 9.639-4.239 13.969-7.306 2.483-1.737 4.778-3.668 6.697-5.989 1.125-1.332 2.095-2.8 2.764-4.4 1.769-4.09 1.36-7.946-1.111-11.635-1.79-2.642-4.269-4.507-7.035-6.016-3.692-1.999-7.657-3.157-11.8-3.835-4.277-.714-8.551-.898-12.876-.712-.236-.015-.44.026-.7.1-.072.27-.177.481-.192.717-.395 2.73-1.471 5.132-3.274 7.195-1.181 1.365-2.454 2.705-3.857 3.818-6.023 4.728-12.922 7.348-20.555 8.041-1.77.15-3.581.096-5.284-.36a20 20 0 0 1-1.601-.477c-3.21-1.291-4.175-4.144-2.593-7.18.674-1.26 1.626-2.302 2.689-3.219 1.645-1.48 3.545-2.653 5.555-3.7 5.031-2.64 10.428-4.315 15.996-5.37 3.094-.612 6.251-.92 9.355-1.385.386-.185.779-.223 1.219-.25M85.678 146.365c-.872-1.051-1.634-1.976-2.44-2.912-2.605-3.005-5.28-5.932-8.494-8.282-6.194-4.494-13.087-6.918-20.742-6.855-2.838.008-5.615.514-8.203 1.742-1.258.575-2.407 1.276-3.327 2.375-1.287 1.577-1.653 3.304-.761 5.177.435.886.96 1.794 1.692 2.471 1.03.996 2.173 1.928 3.41 2.691 3.51 2.142 7.406 3.378 11.422 4.165 8.763 1.724 17.546 1.579 26.289-.21.316-.107.646-.258 1.154-.362m30.004-71.28c-.277-.219-.389-.344-.555-.436a43.3 43.3 0 0 0-7.6-3.91c-6.744-2.625-13.77-3.835-20.987-3.798-4.863.042-9.623.592-14.232 2.19-1.482.518-2.924 1.236-4.288 2.024-.853.492-1.573 1.21-2.218 2-.93 1.143-.783 2.383.236 3.426.486.514 1.054.906 1.678 1.266 1.783 1.054 3.744 1.627 5.752 2.022 3.05.625 6.158.926 9.272.898 11.042.029 21.758-1.952 32.239-5.39q.359-.127.703-.291M108.577 112c-.22-.251-.352-.478-.552-.628-.899-.769-1.729-1.616-2.697-2.308-5.693-4.216-12.153-6.283-19.17-6.626-3.42-.148-6.723.168-9.961 1.318-1.484.515-2.87 1.201-4.07 2.273-1.92 1.791-1.989 3.839-.14 5.727 1.018 1.042 2.323 1.728 3.665 2.279 2.927 1.265 6.071 1.723 9.243 1.9 7.906.437 15.527-.931 22.922-3.61.204-.042.431-.172.76-.325m-1.979-77.782c-.338.005-.574-.01-.764-.014-7.149.68-14.163 2.115-20.838 4.795-2.8 1.124-5.5 2.418-7.918 4.268-1.083.814-2.112 1.788-2.93 2.866-1.772 2.311-1.072 4.18 1.728 5.026 1.78.526 3.592.58 5.419.397 6.766-.687 12.905-2.982 18.398-6.987 2.028-1.473 3.791-3.21 5.133-5.35.925-1.48 1.549-3.092 1.772-5.001"/></g><defs><clipPath id="a"><path fill="#fff" d="m39.664 0 113.013 30.282-39.34 146.82L.322 146.822z"/></clipPath></defs></svg>
